X:1
T:Title
%%score 1 { 2 | 3 }
L:1/8
Q:1/4=80
M:4/4
K:A
V:1 treble nm="Grand Piano, Soprano"
V:2 bass nm="Choir Pad, Night and Day, Mary Dodge"
V:3 bass 
V:1
 [CE][CEc][CEB][CEc] [DA][DF] [CE]2 | [CE][CEF][CEG][CEA] [^DAc][DAB] [EGB]2 | %2
w: By~Fanny~B.~Earle,~1904,~alt. * * * * * *||
 [CEc]2 [B,DF]4 [DEB]2 | [CEA]6 z2 |] %4
w: ||
V:2
 E,E,E,E, F,G, A,2 | A,A,G,F, F,B,, E,2 | E,2 D,4 G,2 | E,6 z2 |] %4
V:3
 A,,A,,A,,A,, A,,A,, A,,2 | z8 | A,,2 z2 z2 [E,,B,,]2 | A,,6 z2 |] %4

